X:25
T:D'Fragin' Jig
M:6/8
L:1/8
C:© Paul Gitlitz 1999
B:Giblitz Fancy
N:I was mesmerized in front of the computer screen,kind of like watching the laundry go round.
K:C
"Dm"Adf edA|Adf "Am"a2A|"Dm"Adf edA|"C"cBc ABc|!
"Dm"d2f edA|Adf "Am"a3|abc' bag|"F"f2e"Dm"d3:|!
|:"Dm"ABc BAG|"F"F2G "Dm"A3|ABc BAG|"F"AGF "Am"E3|!
"Dm"ABc BAG|"F"F2G "Dm"A3|"Am"A,DF ABA|"C"cA^c "Dm"d3:|]
